packages/tokens/icons/external/size32Px.svg

<svg viewBox="0 0 32 32" fill="none" xmlns="http://www.w3.org/2000/svg" width="1em" height="1em"><path d="M14 7.98486L5.97 8.10531C4.87725 8.1217 4 9.01221 4 10.1051V26.1349C4 27.2394 4.89543 28.1349 6 28.1349H22C23.1046 28.1349 24 27.2394 24 26.1349V18.1349" stroke="currentColor" stroke-linecap="round" stroke-linejoin="round"/><path d="M16 15.9998L27.0506 4.94919M18.443 4.51882L27.481 4.5188V13.5568" stroke="currentColor" stroke-linecap="round" stroke-linejoin="round"/></svg>

<svg xmlns="http://www.w3.org/2000/svg" fill="none" viewBox="0 0 32 32" width="1em" height="1em"><path stroke="currentColor" stroke-linecap="round" stroke-linejoin="round" d="m14 7.985-8.03.12a2 2 0 0 0-1.97 2v16.03a2 2 0 0 0 2 2h16a2 2 0 0 0 2-2v-8M16 16 27.05 4.95m-8.607-.431h9.038v9.038"/></svg>
